X: 18075
T: Humours Of Ballyconnell, The
R: reel
M: 4/4
K: Dmajor
A|defe dBBA|FBAF E3A|defe dBBA|FBAF D3:|
|:E|F/E/DAD FAAF|GEcE dEcE|F/E/DAD FAAF|(3ABA GE D3:|
|:f|a2ag a3f|gece Aece|a2ag abag|(3fgf ecd3:|

